icon-themes/sifr_svg/cmd/lc_fontworkshapetype.fontwork-open-circle-curve.svg

<svg viewBox="0 0 24 24" xmlns="http://www.w3.org/2000/svg"><g fill="#555753"><path d="m12 3c-4.7699905.003964-9.4981161 3.0634261-11 7.392578l6.4 3.607422h1.6v-.263672c.1365306-1.547861 1.446582-2.73526 3-2.736328 1.553418.0011 2.861516 1.188467 2.998047 2.736328v.263672h1.599609l6.402344-3.609375c-1.50318-4.328872-6.229611-7.388355-11-7.390625zm0 2c3.345773.004 6.921465 1.8480104 8.466797 4.6152344l-4.037109 2.1328126c-.832946-1.642629-2.515625-2.743351-4.429688-2.748047-1.915071.0024-3.6011334 1.101402-4.4355469 2.744141l-4.0351562-2.1289066c1.5464066-2.768279 5.1233522-4.6134414 8.4707031-4.6152344zm-11 10v7h22v-7zm2 2h18v3h-18z"/><path d="m12 4c-3.7228288.001994-8.9986226 3.4032378-8.9472656 6.574219l4.0546875 2.425781c.4745701-2.325601 2.5197199-3.997 4.8925781-4 2.370656.005816 4.41064 1.67655 4.884766 4l4.111328-2.537109c0-3.0747384-5.303722-6.458491-8.996094-6.462891zm-9 13v3h18v-3z" opacity=".35"/></g></svg>

<svg xmlns="http://www.w3.org/2000/svg" viewBox="0 0 24 24">
  <path
     style="fill:#555753"
     d="M 12 3 C 7.2300095 3.003964 2.5018839 6.0634261 1 10.392578 L 7.4 14 L 9 14 L 9 13.736328 C 9.1365306 12.188467 10.446582 11.001068 12 11 C 13.553418 11.0011 14.861516 12.188467 14.998047 13.736328 L 14.998047 14 L 16.597656 14 L 23 10.390625 C 21.49682 6.061753 16.770389 3.00227 12 3 z M 12 5 C 15.345773 5.004 18.921465 6.8480104 20.466797 9.6152344 L 16.429688 11.748047 C 15.596742 10.105418 13.914063 9.004696 12 9 C 10.084929 9.0024 8.3988666 10.101402 7.5644531 11.744141 L 3.5292969 9.6152344 C 5.0757035 6.8469554 8.6526491 5.001793 12 5 z M 1 15 L 1 22 L 23 22 L 23 15 L 1 15 z M 3 17 L 21 17 L 21 20 L 3 20 L 3 17 z "
     />
  <path
     style="opacity:0.35;fill:#555753"
     d="M 12 4 C 8.2771712 4.001994 3.0013774 7.4032378 3.0527344 10.574219 L 7.1074219 13 C 7.581992 10.674399 9.6271418 9.003 12 9 C 14.370656 9.005816 16.41064 10.67655 16.884766 13 L 20.996094 10.462891 C 20.996094 7.3881526 15.692372 4.0044 12 4 z M 3 17 L 3 20 L 21 20 L 21 17 L 3 17 z "
     />
</svg>
